themes/answers-hitchhiker-theme/static/assets/images/yext-logo.svg

<svg xmlns="http://www.w3.org/2000/svg" xmlns:xlink="http://www.w3.org/1999/xlink" width="30" height="30" viewBox="0 0 30 30">
  <path fill="#0A0B09" d="M25.517 28.142v.095h-.204v.905h-.066v-.905h-.197v-.095h.467zm.667 0h.066v1h-.066v-.825l-.24.595h-.013l-.24-.595v.825h-.066v-1h.066l.247.61.246-.61zM15 28.8c7.622 0 13.8-6.178 13.8-13.8 0-7.622-6.178-13.8-13.8-13.8C7.378 1.2 1.2 7.378 1.2 15c0 7.622 6.178 13.8 13.8 13.8zM15 0c8.284 0 15 6.716 15 15 0 8.284-6.716 15-15 15-8.284 0-15-6.716-15-15C0 6.716 6.716 0 15 0zm.45 16.65v-1.2h6.6v1.2h-2.7v5.4h-1.2v-5.4h-2.7zm-1.599-1.35l.849.849-2.601 2.601 2.601 2.601-.849.849-2.601-2.601L8.649 22.2l-.849-.849 2.601-2.601L7.8 16.149l.849-.849 2.601 2.601 2.601-2.601zM18.675 9a2.175 2.175 0 0 0-1.847 3.323l2.995-2.995A2.163 2.163 0 0 0 18.675 9zm0 5.55a3.375 3.375 0 1 1 2.833-5.209l-3.789 3.788a2.175 2.175 0 0 0 3.13-1.954h1.201a3.375 3.375 0 0 1-3.375 3.375zm-7.425-3.734L13.78 7.8l.92.771-2.85 3.397v2.582h-1.2v-2.582L7.8 8.57l.92-.771 2.53 3.016z"/>
</svg>

<svg version="1.1" xmlns="http://www.w3.org/2000/svg" xmlns:xlink="http://www.w3.org/1999/xlink" x="0px" y="0px"
  width="30" height="30" viewBox="0 0 30 30" xml:space="preserve">
<path d="M15,28.8c7.6,0,13.8-6.2,13.8-13.8S22.6,1.2,15,1.2C7.4,1.2,1.2,7.4,1.2,15S7.4,28.8,15,28.8z M15,0
  c8.3,0,15,6.7,15,15s-6.7,15-15,15S0,23.3,0,15S6.7,0,15,0z M15.4,16.6v-1.2H22v1.2h-2.7V22h-1.2v-5.4
  C18.1,16.6,15.4,16.6,15.4,16.6z M13.9,15.3l0.8,0.8l-2.6,2.6l2.6,2.6l-0.8,0.8l-2.6-2.6l-2.6,2.6l-0.8-0.8l2.6-2.6l-2.6-2.6
  l0.8-0.8l2.6,2.6C11.2,17.9,13.9,15.3,13.9,15.3z M18.7,9c-1.2,0-2.2,1-2.2,2.2c0,0.4,0.1,0.8,0.3,1.1l3-3C19.5,9.1,19.1,9,18.7,9z
  M18.7,14.6c-1.9,0-3.4-1.5-3.4-3.4c0-1.9,1.5-3.4,3.4-3.4c1.1,0,2.2,0.6,2.8,1.5l-3.8,3.8c1.1,0.5,2.4,0.1,2.9-1
  c0.1-0.3,0.2-0.6,0.2-1H22C22,13,20.5,14.5,18.7,14.6z M11.2,10.8l2.5-3l0.9,0.8L11.9,12v2.6h-1.2V12L7.8,8.6l0.9-0.8L11.2,10.8
  L11.2,10.8z"/>
</svg>
